src/images/nav.svg

<svg width="269px" height="169px" viewBox="0 0 269 169" version="1.1" xmlns="http://www.w3.org/2000/svg" xmlns:xlink="http://www.w3.org/1999/xlink">
    <defs>
        <polygon id="path-1" points="22.407 43.4168 22.407 0.6878 0.5635 0.6878 0.5635 43.4168 22.407 43.4168"></polygon>
    </defs>
    <g id="Modul-forslag" stroke="none" stroke-width="1" fill="none" fill-rule="evenodd">
        <g id="NAV-logo-/-hvit-">
            <g id="Page-1-Copy">
                <polygon id="Fill-3" fill="#FFFFFF" points="0 121.3588 17.265 78.6298 33.854 78.6298 16.611 121.3588"></polygon>
                <polygon id="Fill-5" fill="#FFFFFF" points="213.044 121.3588 230.088 78.6298 239.132 78.6298 222.089 121.3588"></polygon>
                <g id="Group-9" transform="translate(246.000000, 77.942000)">
                    <mask id="mask-2" fill="white">
                        <use xlink:href="#path-1"></use>
                    </mask>
                    <g id="Clip-8"></g>
                    <polygon id="Fill-7" fill="#FFFFFF" mask="url(#mask-2)" points="0.5635 43.4168 17.6045 0.6878 22.4075 0.6878 5.3645 43.4168"></polygon>
                </g>
                <path d="M125.3091,168.942 C78.6681,168.942 40.8491,131.125 40.8491,84.477 C40.8491,37.824 78.6681,0 125.3091,0 C171.9671,0 209.7901,37.824 209.7901,84.477 C209.7901,131.125 171.9671,168.942 125.3091,168.942 Z M197.3604,78.6298 L182.3444,78.6298 C182.3444,78.6298 181.3094,78.6298 180.9434,79.5438 L172.6334,104.9828 L164.3304,79.5438 C163.9644,78.6298 162.9234,78.6298 162.9234,78.6298 L134.0514,78.6298 C133.4264,78.6298 132.9024,79.1518 132.9024,79.7728 L132.9024,88.4118 C132.9024,81.5588 125.6104,78.6298 121.3404,78.6298 C111.7784,78.6298 105.3774,84.9278 103.3844,94.5028 C103.2764,88.1508 102.7484,85.8748 101.0374,83.5438 C100.2514,82.4018 99.1154,81.4418 97.8784,80.6478 C95.3314,79.1558 93.0444,78.6298 88.1294,78.6298 L82.3584,78.6298 C82.3584,78.6298 81.3154,78.6298 80.9474,79.5438 L75.6964,92.5568 L75.6964,79.7728 C75.6964,79.1518 75.1764,78.6298 74.5524,78.6298 L61.1984,78.6298 C61.1984,78.6298 60.1674,78.6298 59.7924,79.5438 L54.3334,93.0748 C54.3334,93.0748 53.7884,94.4278 55.0344,94.4278 L60.1674,94.4278 L60.1674,120.2118 C60.1674,120.8518 60.6714,121.3588 61.3144,121.3588 L74.5524,121.3588 C75.1764,121.3588 75.6964,120.8518 75.6964,120.2118 L75.6964,94.4278 L80.8564,94.4278 C83.8174,94.4278 84.4444,94.5088 85.5964,95.0458 C86.2904,95.3078 86.9154,95.8378 87.2564,96.4488 C87.9544,97.7628 88.1294,99.3408 88.1294,103.9938 L88.1294,120.2118 C88.1294,120.8518 88.6434,121.3588 89.2784,121.3588 L101.9664,121.3588 C101.9664,121.3588 103.4004,121.3588 103.9674,119.9428 L106.7794,112.9928 C110.5184,118.2298 116.6724,121.3588 124.3204,121.3588 L125.9914,121.3588 C125.9914,121.3588 127.4344,121.3588 128.0054,119.9428 L132.9024,107.8148 L132.9024,120.2118 C132.9024,120.8518 133.4264,121.3588 134.0514,121.3588 L147.0034,121.3588 C147.0034,121.3588 148.4324,121.3588 149.0064,119.9428 C149.0064,119.9428 154.1864,107.0818 154.2064,106.9848 L154.2144,106.9848 C154.4134,105.9148 153.0614,105.9148 153.0614,105.9148 L148.4384,105.9148 L148.4384,83.8468 L162.9834,119.9428 C163.5514,121.3588 164.9834,121.3588 164.9834,121.3588 L180.2844,121.3588 C180.2844,121.3588 181.7244,121.3588 182.2924,119.9428 L198.4174,80.0138 C198.9754,78.6298 197.3604,78.6298 197.3604,78.6298 Z M132.9024,105.9148 L124.2024,105.9148 C120.7394,105.9148 117.9224,103.1108 117.9224,99.6438 C117.9224,96.1828 120.7394,93.3608 124.2024,93.3608 L126.6354,93.3608 C130.0894,93.3608 132.9024,96.1828 132.9024,99.6438 L132.9024,105.9148 Z" id="Combined-Shape" fill="#FEFEFE"></path>
            </g>
        </g>
    </g>
</svg>

<svg width="269" height="169" xmlns="http://www.w3.org/2000/svg" xmlns:xlink="http://www.w3.org/1999/xlink"><defs><path id="a" d="M22.407 43.417V.687H.564v42.73h21.843z"/></defs><g fill="none" fill-rule="evenodd"><path fill="#FFF" d="M0 121.359l17.265-42.73h16.589l-17.243 42.73zM213.044 121.359l17.044-42.73h9.044l-17.043 42.73z"/><g transform="translate(246 77.942)"><mask id="b" fill="#fff"><use xlink:href="#a"/></mask><path fill="#FFF" mask="url(#b)" d="M.564 43.417L17.604.687h4.803L5.364 43.418z"/></g><path d="M125.31 168.942c-46.642 0-84.46-37.817-84.46-84.465C40.85 37.824 78.667 0 125.31 0c46.657 0 84.48 37.824 84.48 84.477 0 46.648-37.823 84.465-84.48 84.465zm72.05-90.312h-15.016s-1.035 0-1.4.914l-8.31 25.439-8.304-25.44c-.366-.913-1.407-.913-1.407-.913h-28.872c-.625 0-1.149.522-1.149 1.143v8.639c0-6.853-7.292-9.782-11.562-9.782-9.562 0-15.963 6.298-17.956 15.873-.108-6.352-.636-8.628-2.347-10.96-.786-1.141-1.922-2.101-3.159-2.895-2.547-1.492-4.834-2.018-9.749-2.018h-5.77s-1.044 0-1.412.914l-5.25 13.013V79.773c0-.621-.52-1.143-1.145-1.143H61.198s-1.03 0-1.406.914l-5.459 13.53s-.545 1.354.701 1.354h5.133v25.784c0 .64.504 1.147 1.147 1.147h13.238c.624 0 1.144-.507 1.144-1.147V94.428h5.16c2.961 0 3.588.08 4.74.618.694.262 1.32.792 1.66 1.403.698 1.314.873 2.892.873 7.545v16.218c0 .64.514 1.147 1.15 1.147h12.687s1.434 0 2.001-1.416l2.812-6.95c3.74 5.237 9.893 8.366 17.541 8.366h1.671s1.443 0 2.014-1.416l4.897-12.128v12.397c0 .64.524 1.147 1.15 1.147h12.951s1.43 0 2.003-1.416c0 0 5.18-12.861 5.2-12.958h.008c.2-1.07-1.153-1.07-1.153-1.07h-4.623V83.847l14.545 36.096c.568 1.416 2 1.416 2 1.416h15.301s1.44 0 2.008-1.416l16.125-39.93c.558-1.383-1.057-1.383-1.057-1.383zm-64.458 27.285h-8.7c-3.463 0-6.28-2.804-6.28-6.271 0-3.461 2.817-6.283 6.28-6.283h2.433c3.454 0 6.267 2.822 6.267 6.283v6.27z" fill="#FEFEFE"/></g></svg>
